X:107
T: Shang chengcheng
N: C1601
O: China, Anhui, Jinzhai
S: III, 564]
R: Xiaodiao. Chanong shenghuo]
M: 2/4
L: 1/16
K: G
E2EGG2A2 | B2dBA4
d2deedBAGE2G | A4B4 | AGE2D4
E2EEG2A2 | B2dBA4 | ABAGE4
d2dde2eg | e2dBd4
d2deedBAGE3 | A4B4 | A2GED4 | E2EGA4
d2deedBAGE3 | A4B4 | A2GED4

